pix_core/i/news.svg

<svg preserveAspectRatio="xMinYMid meet" viewBox="0 0 512 512" xmlns="http://www.w3.org/2000/svg"><path d="m96 96c0-35.3 28.7-64 64-64h288c35.3 0 64 28.7 64 64v320c0 35.3-28.7 64-64 64h-368c-44.2 0-80-35.8-80-80v-272c0-17.7 14.3-32 32-32s32 14.3 32 32v272c0 8.8 7.2 16 16 16s16-7.2 16-16zm64 24v80c0 13.3 10.7 24 24 24h112c13.3 0 24-10.7 24-24v-80c0-13.3-10.7-24-24-24h-112c-13.3 0-24 10.7-24 24zm208-8c0 8.8 7.2 16 16 16h48c8.8 0 16-7.2 16-16s-7.2-16-16-16h-48c-8.8 0-16 7.2-16 16zm0 96c0 8.8 7.2 16 16 16h48c8.8 0 16-7.2 16-16s-7.2-16-16-16h-48c-8.8 0-16 7.2-16 16zm-208 96c0 8.8 7.2 16 16 16h256c8.8 0 16-7.2 16-16s-7.2-16-16-16h-256c-8.8 0-16 7.2-16 16zm0 96c0 8.8 7.2 16 16 16h256c8.8 0 16-7.2 16-16s-7.2-16-16-16h-256c-8.8 0-16 7.2-16 16z" fill="#fff"/></svg>

<svg xmlns="http://www.w3.org/2000/svg" viewBox="0 0 512 512" preserveAspectRatio="xMinYMid meet"><!--!Font Awesome Free 6.5.2 by @fontawesome - https://fontawesome.com License - https://fontawesome.com/license/free Copyright 2024 Fonticons, Inc.--><path fill="#fff" d="M96 96c0-35.3 28.7-64 64-64H448c35.3 0 64 28.7 64 64V416c0 35.3-28.7 64-64 64H80c-44.2 0-80-35.8-80-80V128c0-17.7 14.3-32 32-32s32 14.3 32 32V400c0 8.8 7.2 16 16 16s16-7.2 16-16V96zm64 24v80c0 13.3 10.7 24 24 24H296c13.3 0 24-10.7 24-24V120c0-13.3-10.7-24-24-24H184c-13.3 0-24 10.7-24 24zm208-8c0 8.8 7.2 16 16 16h48c8.8 0 16-7.2 16-16s-7.2-16-16-16H384c-8.8 0-16 7.2-16 16zm0 96c0 8.8 7.2 16 16 16h48c8.8 0 16-7.2 16-16s-7.2-16-16-16H384c-8.8 0-16 7.2-16 16zM160 304c0 8.8 7.2 16 16 16H432c8.8 0 16-7.2 16-16s-7.2-16-16-16H176c-8.8 0-16 7.2-16 16zm0 96c0 8.8 7.2 16 16 16H432c8.8 0 16-7.2 16-16s-7.2-16-16-16H176c-8.8 0-16 7.2-16 16z"/></svg>
